app/assets/images/icons/active/hand-point--line.svg

<?xml version="1.0" encoding="UTF-8" standalone="no"?>
<svg width="32px" height="232px" viewBox="0 0 32 232" version="1.1" xmlns="http://www.w3.org/2000/svg" xmlns:xlink="http://www.w3.org/1999/xlink" xmlns:sketch="http://www.bohemiancoding.com/sketch/ns">
    <title>hand-point--line</title>
    <description>Created with Sketch (http://www.bohemiancoding.com/sketch)</description>
    <defs></defs>
    <g id="Actions" stroke="none" stroke-width="1" fill="none" fill-rule="evenodd" sketch:type="MSPage">
        <path d="M12.819,132.505875 C14.616,132.505875 15.185,133.897875 14.333,133.897875 C15.387,133.897875 13.887,133.995875 13.887,133.995875 C13.887,133.995875 15.717,133.977875 17.395,133.977875 C17.432,133.973875 17.466,133.964875 17.505,133.964875 L24.805,133.964875 C25.751,133.964875 26.516,134.733875 26.516,135.677875 C26.516,136.621875 25.751,137.388875 24.805,137.388875 L19.825,137.388875 C19.562,137.639875 19.239,137.787875 18.907,137.787875 C18.895,137.787875 18.883,137.786875 18.873,137.786875 C19.218,137.955875 19.53,138.512875 19.53,138.512875 C19.53,138.512875 20.776,140.635875 18.471,141.221875 C18.503,141.327875 19.736,141.913875 19.493,142.765875 C19.251,143.617875 17.729,144.133875 17.729,144.133875 C17.729,144.133875 18.717,144.753875 18.319,145.492875 C17.955,146.174875 16.66,146.614875 16.66,146.614875 C16.66,146.614875 7.993,146.627875 7.711,146.627875 C7.488,146.627875 7.099,146.081875 6.627,146.081875 C6.499,146.081875 6.366,146.121875 6.228,146.223875 L5.575,135.569875 C5.575,135.569875 5.737,135.577875 5.889,135.577875 C5.935,135.577875 5.979,135.576875 6.018,135.574875 C7.917,135.483875 9.738,132.530875 9.738,132.530875 C9.738,132.530875 12.45,132.505875 12.819,132.505875 M12.819,131.028875 C12.449,131.028875 9.724,131.053875 9.724,131.053875 L8.908,131.061875 L8.48,131.756875 C7.807,132.837875 6.6,134.066875 5.947,134.098875 L5.889,134.100875 C5.784,134.100875 5.67,134.094875 5.661,134.093875 L4,133.997875 L4.1,135.658875 L4.92,149.028875 L6.656,147.744875 C6.904,147.916875 7.253,148.105875 7.711,148.105875 C7.993,148.105875 16.663,148.092875 16.663,148.092875 L16.905,148.092875 L17.135,148.013875 C17.569,147.865875 19.028,147.299875 19.623,146.190875 C19.898,145.677875 19.948,145.151875 19.838,144.664875 C20.309,144.295875 20.734,143.804875 20.914,143.168875 C21.082,142.582875 21.026,142.023875 20.749,141.492875 C20.921,141.275875 21.04,141.055875 21.123,140.855875 C21.42,140.141875 21.378,139.430875 21.241,138.865875 L24.805,138.865875 C26.564,138.865875 27.994,137.436875 27.994,135.677875 C27.994,133.918875 26.564,132.487875 24.805,132.487875 L17.505,132.487875 C17.431,132.487875 17.362,132.491875 17.292,132.499875 C16.813,132.499875 16.324,132.501875 15.872,132.504875 C15.364,131.685875 14.288,131.028875 12.819,131.028875" id="hand-point-line--lp-blue" fill="#206FAC" sketch:type="MSShapeGroup"></path>
        <path d="M12.819,92.505875 C14.616,92.505875 15.185,93.897875 14.333,93.897875 C15.387,93.897875 13.887,93.995875 13.887,93.995875 C13.887,93.995875 15.717,93.977875 17.395,93.977875 C17.432,93.973875 17.466,93.964875 17.505,93.964875 L24.805,93.964875 C25.751,93.964875 26.516,94.733875 26.516,95.677875 C26.516,96.621875 25.751,97.388875 24.805,97.388875 L19.825,97.388875 C19.562,97.639875 19.239,97.787875 18.907,97.787875 C18.895,97.787875 18.883,97.786875 18.873,97.786875 C19.218,97.955875 19.53,98.512875 19.53,98.512875 C19.53,98.512875 20.776,100.635875 18.471,101.221875 C18.503,101.327875 19.736,101.913875 19.493,102.765875 C19.251,103.617875 17.729,104.133875 17.729,104.133875 C17.729,104.133875 18.717,104.753875 18.319,105.492875 C17.955,106.174875 16.66,106.614875 16.66,106.614875 C16.66,106.614875 7.993,106.627875 7.711,106.627875 C7.488,106.627875 7.099,106.081875 6.627,106.081875 C6.499,106.081875 6.366,106.121875 6.228,106.223875 L5.575,95.569875 C5.575,95.569875 5.737,95.577875 5.889,95.577875 C5.935,95.577875 5.979,95.576875 6.018,95.574875 C7.917,95.483875 9.738,92.530875 9.738,92.530875 C9.738,92.530875 12.45,92.505875 12.819,92.505875 M12.819,91.028875 C12.449,91.028875 9.724,91.053875 9.724,91.053875 L8.908,91.061875 L8.48,91.756875 C7.807,92.837875 6.6,94.066875 5.947,94.098875 L5.889,94.100875 C5.784,94.100875 5.67,94.094875 5.661,94.093875 L4,93.997875 L4.1,95.658875 L4.92,109.028875 L6.656,107.744875 C6.904,107.916875 7.253,108.105875 7.711,108.105875 C7.993,108.105875 16.663,108.092875 16.663,108.092875 L16.905,108.092875 L17.135,108.013875 C17.569,107.865875 19.028,107.299875 19.623,106.190875 C19.898,105.677875 19.948,105.151875 19.838,104.664875 C20.309,104.295875 20.734,103.804875 20.914,103.168875 C21.082,102.582875 21.026,102.023875 20.749,101.492875 C20.921,101.275875 21.04,101.055875 21.123,100.855875 C21.42,100.141875 21.378,99.430875 21.241,98.865875 L24.805,98.865875 C26.564,98.865875 27.994,97.436875 27.994,95.677875 C27.994,93.918875 26.564,92.487875 24.805,92.487875 L17.505,92.487875 C17.431,92.487875 17.362,92.491875 17.292,92.499875 C16.813,92.499875 16.324,92.501875 15.872,92.504875 C15.364,91.685875 14.288,91.028875 12.819,91.028875" id="hand-point-line--white" fill="#FFFFFF" sketch:type="MSShapeGroup"></path>
        <path d="M12.819,52.505875 C14.616,52.505875 15.185,53.897875 14.333,53.897875 C15.387,53.897875 13.887,53.995875 13.887,53.995875 C13.887,53.995875 15.717,53.977875 17.395,53.977875 C17.432,53.973875 17.466,53.964875 17.505,53.964875 L24.805,53.964875 C25.751,53.964875 26.516,54.733875 26.516,55.677875 C26.516,56.621875 25.751,57.388875 24.805,57.388875 L19.825,57.388875 C19.562,57.639875 19.239,57.787875 18.907,57.787875 C18.895,57.787875 18.883,57.786875 18.873,57.786875 C19.218,57.955875 19.53,58.512875 19.53,58.512875 C19.53,58.512875 20.776,60.635875 18.471,61.221875 C18.503,61.327875 19.736,61.913875 19.493,62.765875 C19.251,63.617875 17.729,64.133875 17.729,64.133875 C17.729,64.133875 18.717,64.753875 18.319,65.492875 C17.955,66.174875 16.66,66.614875 16.66,66.614875 C16.66,66.614875 7.993,66.627875 7.711,66.627875 C7.488,66.627875 7.099,66.081875 6.627,66.081875 C6.499,66.081875 6.366,66.121875 6.228,66.223875 L5.575,55.569875 C5.575,55.569875 5.737,55.577875 5.889,55.577875 C5.935,55.577875 5.979,55.576875 6.018,55.574875 C7.917,55.483875 9.738,52.530875 9.738,52.530875 C9.738,52.530875 12.45,52.505875 12.819,52.505875 M12.819,51.028875 C12.449,51.028875 9.724,51.053875 9.724,51.053875 L8.908,51.061875 L8.48,51.756875 C7.807,52.837875 6.6,54.066875 5.947,54.098875 L5.889,54.100875 C5.784,54.100875 5.67,54.094875 5.661,54.093875 L4,53.997875 L4.1,55.658875 L4.92,69.028875 L6.656,67.744875 C6.904,67.916875 7.253,68.105875 7.711,68.105875 C7.993,68.105875 16.663,68.092875 16.663,68.092875 L16.905,68.092875 L17.135,68.013875 C17.569,67.865875 19.028,67.299875 19.623,66.190875 C19.898,65.677875 19.948,65.151875 19.838,64.664875 C20.309,64.295875 20.734,63.804875 20.914,63.168875 C21.082,62.582875 21.026,62.023875 20.749,61.492875 C20.921,61.275875 21.04,61.055875 21.123,60.855875 C21.42,60.141875 21.378,59.430875 21.241,58.865875 L24.805,58.865875 C26.564,58.865875 27.994,57.436875 27.994,55.677875 C27.994,53.918875 26.564,52.487875 24.805,52.487875 L17.505,52.487875 C17.431,52.487875 17.362,52.491875 17.292,52.499875 C16.813,52.499875 16.324,52.501875 15.872,52.504875 C15.364,51.685875 14.288,51.028875 12.819,51.028875" id="hand-point-line--body-grey" fill="#67737B" sketch:type="MSShapeGroup"></path>
        <path d="M12.819,12.505875 C14.616,12.505875 15.185,13.897875 14.333,13.897875 C15.387,13.897875 13.887,13.995875 13.887,13.995875 C13.887,13.995875 15.717,13.977875 17.395,13.977875 C17.432,13.973875 17.466,13.964875 17.505,13.964875 L24.805,13.964875 C25.751,13.964875 26.516,14.733875 26.516,15.677875 C26.516,16.621875 25.751,17.388875 24.805,17.388875 L19.825,17.388875 C19.562,17.639875 19.239,17.787875 18.907,17.787875 C18.895,17.787875 18.883,17.786875 18.873,17.786875 C19.218,17.955875 19.53,18.512875 19.53,18.512875 C19.53,18.512875 20.776,20.635875 18.471,21.221875 C18.503,21.327875 19.736,21.913875 19.493,22.765875 C19.251,23.617875 17.729,24.133875 17.729,24.133875 C17.729,24.133875 18.717,24.753875 18.319,25.492875 C17.955,26.174875 16.66,26.614875 16.66,26.614875 C16.66,26.614875 7.993,26.627875 7.711,26.627875 C7.488,26.627875 7.099,26.081875 6.627,26.081875 C6.499,26.081875 6.366,26.121875 6.228,26.223875 L5.575,15.569875 C5.575,15.569875 5.737,15.577875 5.889,15.577875 C5.935,15.577875 5.979,15.576875 6.018,15.574875 C7.917,15.483875 9.738,12.530875 9.738,12.530875 C9.738,12.530875 12.45,12.505875 12.819,12.505875 M12.819,11.028875 C12.449,11.028875 9.724,11.053875 9.724,11.053875 L8.908,11.061875 L8.48,11.756875 C7.807,12.837875 6.6,14.066875 5.947,14.098875 L5.889,14.100875 C5.784,14.100875 5.67,14.094875 5.661,14.093875 L4,13.997875 L4.1,15.658875 L4.92,29.028875 L6.656,27.744875 C6.904,27.916875 7.253,28.105875 7.711,28.105875 C7.993,28.105875 16.663,28.092875 16.663,28.092875 L16.905,28.092875 L17.135,28.013875 C17.569,27.865875 19.028,27.299875 19.623,26.190875 C19.898,25.677875 19.948,25.151875 19.838,24.664875 C20.309,24.295875 20.734,23.804875 20.914,23.168875 C21.082,22.582875 21.026,22.023875 20.749,21.492875 C20.921,21.275875 21.04,21.055875 21.123,20.855875 C21.42,20.141875 21.378,19.430875 21.241,18.865875 L24.805,18.865875 C26.564,18.865875 27.994,17.436875 27.994,15.677875 C27.994,13.918875 26.564,12.487875 24.805,12.487875 L17.505,12.487875 C17.431,12.487875 17.362,12.491875 17.292,12.499875 C16.813,12.499875 16.324,12.501875 15.872,12.504875 C15.364,11.685875 14.288,11.028875 12.819,11.028875" id="hand-point-line--title-grey" fill="#3A434E" sketch:type="MSShapeGroup"></path>
    </g>
</svg>

<svg width="32" height="232" viewBox="0 0 32 232" xmlns="http://www.w3.org/2000/svg" xmlns:sketch="http://www.bohemiancoding.com/sketch/ns"><title>hand-point--line</title><g sketch:type="MSPage" fill="none"><path d="M12.819 132.506c1.797 0 2.366 1.392 1.514 1.392 1.054 0-.446.098-.446.098s1.83-.018 3.508-.018l.11-.013h7.3c.946 0 1.711.769 1.711 1.713 0 .944-.765 1.711-1.711 1.711h-4.98c-.263.251-.586.399-.918.399l-.034-.001c.345.169.657.726.657.726s1.246 2.123-1.059 2.709c.032.106 1.265.692 1.022 1.544-.242.852-1.764 1.368-1.764 1.368s.988.62.59 1.359c-.364.682-1.659 1.122-1.659 1.122l-8.949.013c-.223 0-.612-.546-1.084-.546-.128 0-.261.04-.399.142l-.653-10.654.314.008.129-.003c1.899-.091 3.72-3.044 3.72-3.044s2.712-.025 3.081-.025m0-1.477c-.37 0-3.095.025-3.095.025l-.816.008-.428.695c-.673 1.081-1.88 2.31-2.533 2.342l-.058.002-.228-.007-1.661-.096.1 1.661.82 13.37 1.736-1.284c.248.172.597.361 1.055.361l8.952-.013h.242l.23-.079c.434-.148 1.893-.714 2.488-1.823.275-.513.325-1.039.215-1.526.471-.369.896-.86 1.076-1.496.168-.586.112-1.145-.165-1.676.172-.217.291-.437.374-.637.297-.714.255-1.425.118-1.99h3.564c1.759 0 3.189-1.429 3.189-3.188 0-1.759-1.43-3.19-3.189-3.19h-7.3l-.213.012-1.42.005c-.508-.819-1.584-1.476-3.053-1.476" fill="#206FAC" sketch:type="MSShapeGroup"/><path d="M12.819 92.506c1.797 0 2.366 1.392 1.514 1.392 1.054 0-.446.098-.446.098s1.83-.018 3.508-.018l.11-.013h7.3c.946 0 1.711.769 1.711 1.713 0 .944-.765 1.711-1.711 1.711h-4.98c-.263.251-.586.399-.918.399l-.034-.001c.345.169.657.726.657.726s1.246 2.123-1.059 2.709c.032.106 1.265.692 1.022 1.544-.242.852-1.764 1.368-1.764 1.368s.988.62.59 1.359c-.364.682-1.659 1.122-1.659 1.122l-8.949.013c-.223 0-.612-.546-1.084-.546-.128 0-.261.04-.399.142l-.653-10.654.314.008.129-.003c1.899-.091 3.72-3.044 3.72-3.044s2.712-.025 3.081-.025m0-1.477c-.37 0-3.095.025-3.095.025l-.816.008-.428.695c-.673 1.081-1.88 2.31-2.533 2.342l-.058.002-.228-.007-1.661-.096.1 1.661.82 13.37 1.736-1.284c.248.172.597.361 1.055.361l8.952-.013h.242l.23-.079c.434-.148 1.893-.714 2.488-1.823.275-.513.325-1.039.215-1.526.471-.369.896-.86 1.076-1.496.168-.586.112-1.145-.165-1.676.172-.217.291-.437.374-.637.297-.714.255-1.425.118-1.99h3.564c1.759 0 3.189-1.429 3.189-3.188 0-1.759-1.43-3.19-3.189-3.19h-7.3l-.213.012-1.42.005c-.508-.819-1.584-1.476-3.053-1.476" fill="#fff" sketch:type="MSShapeGroup"/><path d="M12.819 52.506c1.797 0 2.366 1.392 1.514 1.392 1.054 0-.446.098-.446.098s1.83-.018 3.508-.018l.11-.013h7.3c.946 0 1.711.769 1.711 1.713 0 .944-.765 1.711-1.711 1.711h-4.98c-.263.251-.586.399-.918.399l-.034-.001c.345.169.657.726.657.726s1.246 2.123-1.059 2.709c.032.106 1.265.692 1.022 1.544-.242.852-1.764 1.368-1.764 1.368s.988.62.59 1.359c-.364.682-1.659 1.122-1.659 1.122l-8.949.013c-.223 0-.612-.546-1.084-.546-.128 0-.261.04-.399.142l-.653-10.654.314.008.129-.003c1.899-.091 3.72-3.044 3.72-3.044s2.712-.025 3.081-.025m0-1.477c-.37 0-3.095.025-3.095.025l-.816.008-.428.695c-.673 1.081-1.88 2.31-2.533 2.342l-.058.002-.228-.007-1.661-.096.1 1.661.82 13.37 1.736-1.284c.248.172.597.361 1.055.361l8.952-.013h.242l.23-.079c.434-.148 1.893-.714 2.488-1.823.275-.513.325-1.039.215-1.526.471-.369.896-.86 1.076-1.496.168-.586.112-1.145-.165-1.676.172-.217.291-.437.374-.637.297-.714.255-1.425.118-1.99h3.564c1.759 0 3.189-1.429 3.189-3.188 0-1.759-1.43-3.19-3.189-3.19h-7.3l-.213.012-1.42.005c-.508-.819-1.584-1.476-3.053-1.476" fill="#67737B" sketch:type="MSShapeGroup"/><path d="M12.819 12.506c1.797 0 2.366 1.392 1.514 1.392 1.054 0-.446.098-.446.098s1.83-.018 3.508-.018l.11-.013h7.3c.946 0 1.711.769 1.711 1.713 0 .944-.765 1.711-1.711 1.711h-4.98c-.263.251-.586.399-.918.399l-.034-.001c.345.169.657.726.657.726s1.246 2.123-1.059 2.709c.032.106 1.265.692 1.022 1.544-.242.852-1.764 1.368-1.764 1.368s.988.62.59 1.359c-.364.682-1.659 1.122-1.659 1.122l-8.949.013c-.223 0-.612-.546-1.084-.546-.128 0-.261.04-.399.142l-.653-10.654.314.008.129-.003c1.899-.091 3.72-3.044 3.72-3.044s2.712-.025 3.081-.025m0-1.477c-.37 0-3.095.025-3.095.025l-.816.008-.428.695c-.673 1.081-1.88 2.31-2.533 2.342l-.058.002-.228-.007-1.661-.096.1 1.661.82 13.37 1.736-1.284c.248.172.597.361 1.055.361l8.952-.013h.242l.23-.079c.434-.148 1.893-.714 2.488-1.823.275-.513.325-1.039.215-1.526.471-.369.896-.86 1.076-1.496.168-.586.112-1.145-.165-1.676.172-.217.291-.437.374-.637.297-.714.255-1.425.118-1.99h3.564c1.759 0 3.189-1.429 3.189-3.188 0-1.759-1.43-3.19-3.189-3.19h-7.3l-.213.012-1.42.005c-.508-.819-1.584-1.476-3.053-1.476" fill="#3A434E" sketch:type="MSShapeGroup"/></g></svg>
